X: 11945
T: En Dro
R: barndance
M: 4/4
K: Adorian
|:E2 AB cAAB|ccBA G2 AG|EEAB cAAB|c2 B2 A4:|
|:c2 AB cAAB|ccdc B2 AB|cAAB c2 AB|c2 B2 A4:|

